synths/sBNT.svg

<svg width="480" height="480" viewBox="0 0 480 480" fill="none" xmlns="http://www.w3.org/2000/svg"><mask id="mask0-686075" maskUnits="userSpaceOnUse" x="0" y="0" width="480" height="480"><circle cx="240" cy="240" r="240" fill="url(#paint0_linear-222878)"/></mask><g mask="url(#mask0-686075)"><circle cx="240" cy="240" r="240" fill="#31D8A4"/><circle cx="240" cy="240" r="208" fill="#fff"/></g><circle cx="240" cy="240" r="184" fill="#0E052F"/><path d="M240 424c101.62 0 184-82.38 184-184S341.62 56 240 56 56 138.38 56 240s82.38 184 184 184z" fill="#000D2B"/><path d="M239.08 123.62l-51.957 30.441 51.957 30.452 52.934-30.452-52.934-30.441zm8.544 162.541v60.893l70.576-40.262v-60.904l-70.576 40.273zm52.935-112.953v60.904l-52.946 30.452V203.66l52.946-30.452zm-127.443 60.904l52.946 30.452V203.66l-52.946-30.452v60.904zm0 82.501l52.946 30.441v-60.893l-52.946-30.44v60.892z" fill="#fff"/><defs><linearGradient id="paint0_linear-222878" x1="240" y1="0" x2="240" y2="701.818" gradientUnits="userSpaceOnUse"><stop stop-color="#08021E"/><stop offset="1" stop-color="#1F0777"/></linearGradient></defs></svg>

<svg width="480" height="480" viewBox="0 0 480 480" fill="none" xmlns="http://www.w3.org/2000/svg">
<mask id="mask0-686075" mask-type="alpha" maskUnits="userSpaceOnUse" x="0" y="0" width="480" height="480">
<circle cx="240" cy="240" r="240" fill="url(#paint0_linear-222878)"/>
</mask>
<g mask="url(#mask0-686075)">
<circle cx="240" cy="240" r="240" fill="#31D8A4"/>
<circle cx="240" cy="240" r="208" fill="white"/>
</g>
<circle cx="240" cy="240" r="184" fill="#0E052F"/>
<path d="M240 424C341.62 424 424 341.62 424 240C424 138.38 341.62 56 240 56C138.38 56 56 138.38 56 240C56 341.62 138.38 424 240 424Z" fill="#000D2B"/>
<path d="M239.08 123.62L187.123 154.061L239.08 184.513L292.014 154.061L239.08 123.62ZM247.624 286.161V347.054L318.2 306.792V245.888L247.624 286.161ZM300.559 173.208V234.112L247.613 264.564V203.66L300.559 173.208ZM173.116 234.112L226.062 264.564V203.66L173.116 173.208V234.112ZM173.116 316.613L226.062 347.054V286.161L173.116 255.721V316.602V316.613Z" fill="white"/>
<defs>
<linearGradient id="paint0_linear-222878" x1="240" y1="0" x2="240" y2="701.818" gradientUnits="userSpaceOnUse">
<stop stop-color="#08021E"/>
<stop offset="1" stop-color="#1F0777"/>
</linearGradient>
</defs>
</svg>
